.github/images/card.svg

<svg width="914" height="400" fill="none" xmlns="http://www.w3.org/2000/svg">
  <path fill="#fff" d="M0 0h914v400H0z"/>
  <path d="M435.956 212.513c-1.039 0-1.914-.171-2.625-.513a4.618 4.618 0 01-1.743-1.559V212h-5.456v-27.85l5.456-2.481v10.418c.464-.615 1.08-1.108 1.845-1.477.766-.382 1.675-.574 2.728-.574 1.285 0 2.468.26 3.548.779a7.926 7.926 0 012.83 2.215c.793.957 1.408 2.133 1.845 3.528.452 1.38.677 2.946.677 4.696 0 1.818-.212 3.432-.636 4.84-.423 1.394-1.032 2.57-1.825 3.527a7.803 7.803 0 01-2.871 2.153c-1.121.493-2.379.739-3.773.739zm-.636-5.25c.697 0 1.312-.137 1.846-.41a3.78 3.78 0 001.333-1.21c.369-.534.642-1.169.82-1.908.191-.738.287-1.565.287-2.481 0-1.928-.376-3.404-1.128-4.43-.738-1.025-1.791-1.538-3.158-1.538-.465 0-.896.055-1.292.164a4.141 4.141 0 00-1.066.41 3.651 3.651 0 00-.821.575c-.232.205-.417.41-.553.615v8.49a4.07 4.07 0 001.497 1.272c.601.3 1.346.451 2.235.451zm21.73 5.25c-1.518 0-2.885-.253-4.102-.759a8.789 8.789 0 01-3.117-2.215c-.847-.971-1.504-2.146-1.968-3.527-.465-1.395-.698-2.967-.698-4.717 0-1.75.233-3.322.698-4.717.464-1.394 1.121-2.577 1.968-3.548a8.465 8.465 0 013.117-2.215c1.217-.519 2.584-.779 4.102-.779 1.518 0 2.885.26 4.102.779a8.27 8.27 0 013.096 2.215c.862.971 1.518 2.154 1.969 3.548.465 1.395.697 2.967.697 4.717 0 1.75-.232 3.322-.697 4.717-.451 1.381-1.107 2.556-1.969 3.527a8.58 8.58 0 01-3.096 2.215c-1.217.506-2.584.759-4.102.759zm0-5.25c.684 0 1.299-.137 1.846-.41a3.779 3.779 0 001.374-1.169c.383-.52.676-1.149.882-1.887.205-.738.307-1.572.307-2.502 0-.943-.102-1.784-.307-2.523-.206-.738-.499-1.367-.882-1.886a3.697 3.697 0 00-1.374-1.19c-.547-.273-1.162-.41-1.846-.41-.684 0-1.299.137-1.846.41a3.869 3.869 0 00-1.394 1.19c-.369.519-.656 1.148-.862 1.886-.205.739-.307 1.58-.307 2.523 0 .93.102 1.764.307 2.502.206.738.493 1.367.862 1.887a3.96 3.96 0 001.394 1.169c.547.273 1.162.41 1.846.41zm23.063 5.25c-1.053 0-1.962-.192-2.727-.575-.766-.382-1.381-.881-1.846-1.497v7.486l-5.455 2.481v-29.88h5.455v1.559c.465-.615 1.08-1.108 1.846-1.477.779-.382 1.702-.574 2.768-.574 1.326 0 2.536.246 3.63.738a7.45 7.45 0 012.789 2.174c.779.944 1.381 2.119 1.805 3.528.424 1.394.635 3.001.635 4.819 0 1.75-.225 3.322-.676 4.717-.438 1.381-1.053 2.556-1.846 3.527a8.227 8.227 0 01-2.83 2.215c-1.08.506-2.263.759-3.548.759zm-.841-5.25c1.367 0 2.42-.513 3.158-1.538.752-1.039 1.128-2.516 1.128-4.43 0-.916-.095-1.743-.287-2.482-.177-.738-.451-1.367-.82-1.886-.355-.52-.8-.923-1.333-1.21-.533-.287-1.148-.431-1.846-.431-.888 0-1.634.151-2.235.451a4.07 4.07 0 00-1.497 1.272v8.49c.137.205.321.417.554.636.232.205.505.396.82.574.314.164.67.301 1.066.41.397.096.827.144 1.292.144z" fill="#96C"/>
  <path stroke="#96C" stroke-width="5" d="M404.5 168.5h105v63h-105z"/>
</svg>

<svg width="914" height="400" viewBox="0 0 914 400" fill="none" xmlns="http://www.w3.org/2000/svg">
<path d="M435.956 212.513C434.917 212.513 434.042 212.342 433.331 212C432.633 211.645 432.052 211.125 431.588 210.441V212H426.132V184.15L431.588 181.669V192.087C432.052 191.472 432.668 190.979 433.433 190.61C434.199 190.228 435.108 190.036 436.161 190.036C437.446 190.036 438.629 190.296 439.709 190.815C440.802 191.321 441.746 192.06 442.539 193.03C443.332 193.987 443.947 195.163 444.384 196.558C444.836 197.938 445.061 199.504 445.061 201.254C445.061 203.072 444.849 204.686 444.425 206.094C444.002 207.488 443.393 208.664 442.6 209.621C441.807 210.564 440.85 211.282 439.729 211.774C438.608 212.267 437.35 212.513 435.956 212.513ZM435.32 207.263C436.017 207.263 436.632 207.126 437.166 206.853C437.699 206.565 438.143 206.162 438.499 205.643C438.868 205.109 439.141 204.474 439.319 203.735C439.51 202.997 439.606 202.17 439.606 201.254C439.606 199.326 439.23 197.85 438.478 196.824C437.74 195.799 436.687 195.286 435.32 195.286C434.855 195.286 434.424 195.341 434.028 195.45C433.631 195.546 433.276 195.683 432.962 195.86C432.647 196.024 432.374 196.216 432.141 196.435C431.909 196.64 431.724 196.845 431.588 197.05V205.54C431.984 206.087 432.483 206.511 433.085 206.812C433.686 207.112 434.431 207.263 435.32 207.263ZM457.05 212.513C455.532 212.513 454.165 212.26 452.948 211.754C451.732 211.234 450.693 210.496 449.831 209.539C448.984 208.568 448.327 207.393 447.863 206.012C447.398 204.617 447.165 203.045 447.165 201.295C447.165 199.545 447.398 197.973 447.863 196.578C448.327 195.184 448.984 194.001 449.831 193.03C450.693 192.06 451.732 191.321 452.948 190.815C454.165 190.296 455.532 190.036 457.05 190.036C458.568 190.036 459.935 190.296 461.152 190.815C462.368 191.321 463.401 192.06 464.248 193.03C465.11 194.001 465.766 195.184 466.217 196.578C466.682 197.973 466.914 199.545 466.914 201.295C466.914 203.045 466.682 204.617 466.217 206.012C465.766 207.393 465.11 208.568 464.248 209.539C463.401 210.496 462.368 211.234 461.152 211.754C459.935 212.26 458.568 212.513 457.05 212.513ZM457.05 207.263C457.734 207.263 458.349 207.126 458.896 206.853C459.443 206.579 459.901 206.189 460.27 205.684C460.653 205.164 460.946 204.535 461.152 203.797C461.357 203.059 461.459 202.225 461.459 201.295C461.459 200.352 461.357 199.511 461.152 198.772C460.946 198.034 460.653 197.405 460.27 196.886C459.901 196.366 459.443 195.97 458.896 195.696C458.349 195.423 457.734 195.286 457.05 195.286C456.366 195.286 455.751 195.423 455.204 195.696C454.657 195.97 454.193 196.366 453.81 196.886C453.441 197.405 453.154 198.034 452.948 198.772C452.743 199.511 452.641 200.352 452.641 201.295C452.641 202.225 452.743 203.059 452.948 203.797C453.154 204.535 453.441 205.164 453.81 205.684C454.193 206.189 454.657 206.579 455.204 206.853C455.751 207.126 456.366 207.263 457.05 207.263ZM480.113 212.513C479.06 212.513 478.151 212.321 477.386 211.938C476.62 211.556 476.005 211.057 475.54 210.441V217.927L470.085 220.408V190.528H475.54V192.087C476.005 191.472 476.62 190.979 477.386 190.61C478.165 190.228 479.088 190.036 480.154 190.036C481.48 190.036 482.69 190.282 483.784 190.774C484.878 191.267 485.807 191.991 486.573 192.948C487.352 193.892 487.954 195.067 488.378 196.476C488.802 197.87 489.013 199.477 489.013 201.295C489.013 203.045 488.788 204.617 488.337 206.012C487.899 207.393 487.284 208.568 486.491 209.539C485.698 210.496 484.755 211.234 483.661 211.754C482.581 212.26 481.398 212.513 480.113 212.513ZM479.272 207.263C480.639 207.263 481.692 206.75 482.43 205.725C483.182 204.686 483.558 203.209 483.558 201.295C483.558 200.379 483.463 199.552 483.271 198.813C483.094 198.075 482.82 197.446 482.451 196.927C482.096 196.407 481.651 196.004 481.118 195.717C480.585 195.43 479.97 195.286 479.272 195.286C478.384 195.286 477.638 195.437 477.037 195.737C476.435 196.038 475.936 196.462 475.54 197.009V205.499C475.677 205.704 475.861 205.916 476.094 206.135C476.326 206.34 476.599 206.531 476.914 206.709C477.228 206.873 477.584 207.01 477.98 207.119C478.377 207.215 478.807 207.263 479.272 207.263Z" fill="#9966CC"/>
<rect x="404.5" y="168.5" width="105" height="63" stroke="#9966CC" stroke-width="5"/>
</svg>
